X: 22
T:Crosspatch
C:Neil Brookes
M:4/4
L:1/4
Q:1/4=120
K:Dmix
|d2 A>B|cBAG|F/2G/2A/2B/2 c A |B G F D|zd A>B|cBAG|F/2G/2A/2B/2 c 
A|G/2z
/2 G2z|
|d2 A>B|cBAG|F/2G/2A/2B/2 c A |B G F D|zd A>B|cBAG|F/2G/2A/2B/2 c 
A|G/2z
/2 G2z|
|FDAD|BDAD|E/2D/2E/2F/2GF|EDEG|FDAD|BDAD|A>BcB|G/2z/2 G2z|
|FDAD|BDAD|E/2D/2E/2F/2GF|EDEG|FDAD|BDAD|A>BcB|GAB_d|
